recipes/airtable/icon.svg

<svg clip-rule="evenodd" fill-rule="evenodd" stroke-linejoin="round" stroke-miterlimit="2" viewBox="0 0 800 800" xmlns="http://www.w3.org/2000/svg" xmlns:xlink="http://www.w3.org/1999/xlink"><clipPath id="a"><path clip-rule="evenodd" d="m0 0h800v800h-800z"/></clipPath><clipPath id="b"><path clip-rule="evenodd" d="m33.403 274.295c-7.514-2.984-16.019-2.052-22.708 2.489-6.69 4.541-10.695 12.101-10.695 20.186v274.603c0 6.83 3.509 13.182 9.291 16.818 5.782 3.637 13.026 4.048 19.183 1.089 69.343-33.324 246.947-118.674 324.345-155.868 6.435-3.093 10.431-9.7 10.182-16.836-.25-7.135-4.698-13.447-11.334-16.083-76.2-30.262-246.138-97.753-318.264-126.398z"/></clipPath><path d="m0 0h800v800h-800z" fill="none"/><g clip-path="url(#a)"><path d="m432.604 68.816c-20.455-8.447-43.423-8.447-63.879 0-69.027 28.504-232.12 95.851-309.514 127.81-7.05 2.912-11.649 9.786-11.649 17.414s4.599 14.503 11.649 17.414c77.394 31.959 240.487 99.306 309.514 127.81 20.456 8.447 43.424 8.447 63.879 0 69.028-28.504 232.12-95.851 309.514-127.81 7.051-2.911 11.65-9.786 11.65-17.414s-4.599-14.502-11.65-17.414c-77.394-31.959-240.486-99.306-309.514-127.81z" fill="#f9bf2f"/><path d="m450.918 394.021c-14.69 5.569-24.405 19.642-24.405 35.352v286.221c0 6.529 3.207 12.641 8.58 16.35s12.225 4.542 18.33 2.228c69.705-26.424 255.339-96.796 322.172-122.131 14.69-5.569 24.405-19.642 24.405-35.352v-286.221c0-6.529-3.208-12.641-8.581-16.35-5.372-3.709-12.225-4.542-18.33-2.228-69.704 26.424-255.338 96.796-322.171 122.131z" fill="#41c8fa"/><path d="m33.403 274.295c-7.514-2.984-16.019-2.052-22.708 2.489-6.69 4.541-10.695 12.101-10.695 20.186v274.603c0 6.83 3.509 13.182 9.291 16.818 5.782 3.637 13.026 4.048 19.183 1.089 69.343-33.324 246.947-118.674 324.345-155.868 6.435-3.093 10.431-9.7 10.182-16.836-.25-7.135-4.698-13.447-11.334-16.083-76.2-30.262-246.138-97.753-318.264-126.398z" fill="#f72b60"/><g clip-path="url(#b)"><path d="m8.137 280.797c1.049-1.004 2.188-1.927 3.411-2.757 7.222-4.903 16.405-5.909 24.518-2.687 72.591 28.829 235.92 93.695 312.56 124.132 7.165 2.846 11.968 9.661 12.237 17.366.27 7.705-4.045 14.839-10.993 18.178l-100.093 48.101z" fill="#ba1f47"/></g></g></svg>

<svg clip-rule="evenodd" fill-rule="evenodd" stroke-linejoin="round" stroke-miterlimit="2" viewBox="0 0 800 800" xmlns="http://www.w3.org/2000/svg"><clipPath id="a"><path d="M0 0h800v800H0z"/></clipPath><clipPath id="b"><path d="M33.403 274.295A24.398 24.398 0 0 0 0 296.97v274.603a19.868 19.868 0 0 0 28.474 17.907l324.345-155.868a17.984 17.984 0 0 0 10.182-16.836 17.984 17.984 0 0 0-11.334-16.083L33.403 274.295z"/></clipPath><path d="M0 0h800v800H0z" fill="none"/><g clip-path="url(#a)"><path d="M432.604 68.816a83.68 83.68 0 0 0-63.879 0L59.211 196.626a18.84 18.84 0 0 0 0 34.828l309.514 127.81a83.68 83.68 0 0 0 63.879 0l309.514-127.81a18.839 18.839 0 0 0 0-34.828L432.604 68.816z" fill="#f9bf2f"/><path d="M450.918 394.021a37.807 37.807 0 0 0-24.405 35.352v286.221a19.866 19.866 0 0 0 26.91 18.578l322.172-122.131A37.807 37.807 0 0 0 800 576.689V290.468a19.867 19.867 0 0 0-26.911-18.578L450.918 394.021z" fill="#41c8fa"/><path d="M33.403 274.295A24.398 24.398 0 0 0 0 296.97v274.603a19.868 19.868 0 0 0 28.474 17.907l324.345-155.868a17.984 17.984 0 0 0 10.182-16.836 17.984 17.984 0 0 0-11.334-16.083L33.403 274.295z" fill="#f72b60"/><g clip-path="url(#b)"><path d="M8.137 280.797a26.342 26.342 0 0 1 27.929-5.444l312.56 124.132a19.415 19.415 0 0 1 1.244 35.544L249.777 483.13z" fill="#ba1f47"/></g></g></svg>
